icons/textformat/textformat.svg

<svg width="14" height="14" viewBox="0 0 14 14" fill="none"
    xmlns="http://www.w3.org/2000/svg">
    <path d="M1.75 11L2.68302 8.01432M6.75 11L5.81698 8.01432M2.68302 8.01432L4.25 3L5.81698 8.01432M2.68302 8.01432H5.81698" stroke="red" stroke-linecap="round" stroke-linejoin="round"/>
    <path d="M12.25 6.5C12.5261 6.5 12.75 6.72386 12.75 7V11C12.75 11.2761 12.5261 11.5 12.25 11.5C11.9739 11.5 11.75 11.2761 11.75 11V10.9961C11.3318 11.3108 10.8137 11.5 10.25 11.5C8.86929 11.5 7.75 10.3807 7.75 9C7.75 7.61929 8.86929 6.5 10.25 6.5C10.8135 6.5 11.3319 6.6884 11.75 7.00293V7C11.75 6.72386 11.9739 6.5 12.25 6.5ZM10.25 7.5C9.42157 7.5 8.75 8.17157 8.75 9C8.75 9.82843 9.42157 10.5 10.25 10.5C11.0784 10.5 11.75 9.82843 11.75 9C11.75 8.17157 11.0784 7.5 10.25 7.5Z" fill="green"/>
</svg>

<svg xmlns="http://www.w3.org/2000/svg" width="14" height="14" fill="none" viewBox="0 0 14 14"><path stroke="red" stroke-linecap="round" stroke-linejoin="round" d="m1.75 11 .933-2.986M6.75 11l-.933-2.986m-3.134 0L4.25 3l1.567 5.014m-3.134 0h3.134"/><path fill="green" d="M12.25 6.5a.5.5 0 0 1 .5.5v4a.5.5 0 0 1-1 0v-.004a2.5 2.5 0 0 1-1.5.504 2.5 2.5 0 1 1 1.5-4.497V7a.5.5 0 0 1 .5-.5m-2 1a1.5 1.5 0 1 0 0 3 1.5 1.5 0 0 0 0-3"/></svg>
